X: 45
T:Congress
R:reel
M:C|
L:1/8
K:G
Bd|eAAG ~A2Bd|eaaf gedg|eAAG ABcd|BG~G2 BABd|
eAAG ~A2Bd|eaaf gedB|~c2cd (3efg ed|cABG A2:|
Bd|eaag ~a2 ag|eaag eg~d2|(3efg dg egdg|eaaf ge~d2|
eaag ~a2 ag|eaag (3efg dB|~c2cd (3efg ed|cABG A2:|

